X: 1
T: Ruthven House
C: J.Watson
R: strathspey
D: Ian Powrie Album
Z: John Chambers <jc:trillian.mit.edu>
M: C
L: 1/8
K: D
B \
| "D" A2 F>A D>A F<A | D>A F<A "G"B<d d>B \
| "D" A2 F>A "(Bm)"D>A F<A | "G"G>B "D"A<F "A7"E2- E :|
|: c \
| "D"d2 f>d a>d f<d | d2 f>d f<a "G"g<b \
| "D"d2 f>d a>d f>d | "G"g>f e>d "A7"c<e e>f |
| "D"d2 f>d a>d f<d | d2 f>d f<a "G"g<b \
| "D"a>f e<f "G"d>B B<d | "A7"A>B d>e "D"f<d d |]
